X: 41216
T: Trollpolska
R: waltz
M: 3/4
K: Eminor
|:B,|"Em" E2 EF GA|"Em" B2 B^d ef|"Em" ga gf ee|"G" de dB GB|
"Am" cd cB Ac|"Em" Bc BA GG|"B7" FG FE ^DF|1 "Em" E2 E3:|2 "Em" E2 E4||
|:"Em" ba gf gb|"G" ab af d2|"Em" gf e^d eg|"B7" fg f^d B2|
"Am" ed cB ce|"G" de dB GG|"B7" FG FE ^DF|1 "Em" E2 E4:|2 "Em" E2 E3||

